X:16
T:DAN BACKUS' FAVORITE -- REEL.
T:Miss McGuinness
R:reel
B:Coles pg. 30.8
Z:John B. Walsh, 5/8/2002 <walsh:mat::h.ubc.ca>
M:2/4
L:1/16
K:F
u(fd)|:(cF).F.F cFAc|defg agfd|(cF).F.F cFAc|.d2(cA) (AG).G2|
(cF).F.F cFAc|defg agfd|(cF).F.F cFAc|.d2(cA) (AG).G2:|
.g2(ag) fddf|dfcf dfcf|.g2(ag) fddf|fdcA (AG).G2|
.g2(ag) fddf|dfcf dfcf|(ag).f.a gfde|(fd).c.A (AG)"D.C.".G2||
